svgs/light/truck-pickup.svg

<svg xmlns="http://www.w3.org/2000/svg" viewBox="0 0 640 512"><!-- Font Awesome Pro 6.0.0-alpha2 by @fontawesome - https://fontawesome.com License - https://fontawesome.com/license (Commercial License) --><path d="M624 352H608V224C608 197.49 586.51 176 560 176H515.25L419.25 56C407.125 40.875 388.625 32 369.25 32H256C238.4 32 224 46.4 224 64V176H80C53.49 176 32 197.49 32 224V352H16C7.2 352 0 359.2 0 368V368C0 376.8 7.2 384 16 384H80C80 437 123 480 176 480S272 437 272 384H368C368 437 411 480 464 480S560 437 560 384H624C632.8 384 640 376.8 640 368V368C640 359.2 632.8 352 624 352ZM256 64H369.25C379 64 388.125 68.375 394.25 76L474.25 176H256V64ZM176 448C140.625 448 112 419.375 112 384S140.625 320 176 320S240 348.625 240 384S211.375 448 176 448ZM464 448C428.625 448 400 419.375 400 384S428.625 320 464 320S528 348.625 528 384S499.375 448 464 448ZM576 352H554.125C540.875 314.75 505.75 288 464 288S387.125 314.75 373.875 352H266.125C252.875 314.75 217.75 288 176 288S99.125 314.75 85.875 352H64V224C64 215.125 71.125 208 80 208H560C568.875 208 576 215.125 576 224V352Z"/></svg>

<svg xmlns="http://www.w3.org/2000/svg" viewBox="0 0 640 512"><!--! Font Awesome Pro 6.0.0-alpha3 by @fontawesome - https://fontawesome.com License - https://fontawesome.com/license (Commercial License) --><path d="M624 352H608V224c0-26.51-21.49-48-48-48h-44.75l-96-120C407.1 40.88 388.6 32 369.2 32H256C238.4 32 224 46.4 224 64v112H80C53.49 176 32 197.5 32 224v128H15.1C7.2 352 0 359.2 0 367.1C0 376.8 7.2 384 15.1 384H80c0 53 43 96 96 96s96-43 96-96h96c0 53 43 96 96 96s96-43 96-96h64c8.8 0 16-7.2 16-15.1C640 359.2 632.8 352 624 352zM256 64h113.2c9.75 0 18.88 4.375 25 12l80 100H256V64zM176 448c-35.38 0-64-28.62-64-64s28.62-64 64-64s64 28.62 64 64S211.4 448 176 448zM464 448c-35.38 0-64-28.62-64-64s28.62-64 64-64s64 28.62 64 64S499.4 448 464 448zM576 352h-21.88C540.9 314.8 505.8 288 464 288s-76.88 26.75-90.13 64H266.1C252.9 314.8 217.8 288 176 288s-76.88 26.75-90.12 64H64V224c0-8.875 7.125-16 16-16h480C568.9 208 576 215.1 576 224V352z"/></svg>
